X: 25576
T: Mark's Minor
R: jig
M: 6/8
K: Gminor
"Gm"B2A|:"Gm"G>^FG "D/A"A^FD|"Gm/Bb"B>AB "Gm/D"cBA|"Gm" G^FG "Gm/Bb" ABc|"Gm" dcB "D"A^FD|
"Gm"G>^FG "D"A^FD|"Cm7"B>AB "Cm7/Eb"cde|"Gm"dcB "D"AG^F|1 "Gm"DGA G2 B/A/:|2 DGA "Gm"G2d||
|:"Gm"gab "Gm/Bb"gab|"D"a2d-d2d|"Gm"g2 b-"Gm/Bb" bag|"D/A"^f2d- "D"d2d|
"D"{e}d>^cd "D/A"d=e^f|"Cm"g2_e- e2c|"Gm"BAG "D" AG^F|1 "Gm"DGA G2d:|2 "Gm"DGA G2 B/A/||

